libs/icons/src/svg/products-outline.svg

<svg width="16" height="16" viewBox="0 0 16 16" fill="none" xmlns="http://www.w3.org/2000/svg">
<path fill-rule="evenodd" clip-rule="evenodd" d="M8.27072 0.724131C8.09834 0.647519 7.90158 0.647519 7.7292 0.724131L1.73142 3.38981C1.59253 3.45089 1.47396 3.55927 1.40223 3.70476C1.39188 3.72571 1.38261 3.74722 1.37449 3.76923C1.34471 3.84971 1.33148 3.93274 1.33329 4.01433V12C1.33329 12.2635 1.48845 12.5022 1.7292 12.6092L7.71594 15.27C7.7972 15.3083 7.88745 15.3307 7.98266 15.3331C7.98842 15.3333 7.99419 15.3333 7.99996 15.3333C8.00903 15.3333 8.0181 15.3332 8.02716 15.3328C8.11872 15.3291 8.20554 15.307 8.28397 15.27L14.2707 12.6092C14.5115 12.5022 14.6666 12.2635 14.6666 12V4.01464C14.6685 3.93058 14.6545 3.84499 14.6228 3.76223C14.6162 3.74506 14.609 3.72819 14.6011 3.71167C14.5296 3.56251 14.4093 3.45157 14.268 3.38958L8.27072 0.724131ZM12.3585 4.00001L7.99996 2.06288L3.64144 4L7.99996 5.93713L12.3585 4.00001ZM2.66663 5.02584V11.5668L7.33329 13.6408V7.09992L2.66663 5.02584ZM8.66663 13.6408L13.3333 11.5668V5.02585L8.66663 7.09992V13.6408Z" fill="#202327"/>
</svg>

<svg xmlns="http://www.w3.org/2000/svg" viewBox="0 0 16 16" class="sageicon"><path fill-rule="evenodd" d="M8.27.724a.667.667 0 0 0-.54 0L1.73 3.39a.664.664 0 0 0-.398.624V12c0 .264.155.502.396.61l5.987 2.66a.663.663 0 0 0 .568 0l5.987-2.66a.667.667 0 0 0 .396-.61V4.015a.663.663 0 0 0-.399-.625L8.271.724ZM12.359 4 8 2.063 3.641 4 8 5.937 12.358 4ZM2.667 5.026v6.54l4.666 2.075V7.1L2.667 5.026Zm6 8.615 4.666-2.074V5.026L8.667 7.1v6.54Z"/></svg>
